!!! OTL: San-, Tien-, Lu\, Cheng/,Liang^,Tien-,Dau\ (Three day roads in two days)
!!! YEC: Copyright 2001, Chia-wei Lee
!! For Voice Only 
!![Moderato]
**kern	**silbe
*clefG2	*LXinhua
*A:	*ping-ying
*M2/4	*
=5	=5
(16ff#	Er\
16ee)	|
8cc#	Sui\
8.ff#	Sui\
16ee	Ge\
=6	=6
8cc#	Ma^
8f#	Ju-
(16ff#	Ju-
16ee)	|
(16cc#	Ia
16ee)	|
=7	=7
8.a	Pau^
16f#	Na\
8b	Zau^
16cc	Na\
16b	Ge\
=8	=8
8a	Tan-
[4.f#	Ia\
=9	=9
4f#]	|
4r	.
=10	=10
(16ff#	Liau/
16ee)	|
8cc#	Ge-
(8.ff#	Ge-
16ee)	|
=11	=11
8cc#	Zhan\
8f#	De
(16ff#	Mei\
16ee)	|
(16cc#	Mei\
16ee)	|
=12	=12
8.a	Lian^
16f#	Na\
8b	Tuei^
16cc#	De
16b	La
=13	=13
8a	suan-
[4.b	Ia\
=14	|
4b]	|
4r	.
*-	*-
